svgs/duotone/cloud-hail.svg

<svg xmlns="http://www.w3.org/2000/svg" viewBox="0 0 512 512"><!--! Font Awesome Pro 6.0.0 by @fontawesome - https://fontawesome.com License - https://fontawesome.com/license (Commercial License) Copyright 2022 Fonticons, Inc. --><defs><style>.fa-secondary{opacity:.4}</style></defs><path class="fa-primary" d="M512 224c0 53-43 96-96 96H96c-53 0-96-43-96-96c0-42.5 27.75-78.25 66.13-90.75C64.75 126.2 64 119.2 64 112C64 50.12 114.1 0 176 0c43.25 0 80.38 24.75 99 60.75C289.8 43.25 311.4 32 336 32C380.2 32 416 67.75 416 112c0 5.625-.5 11-1.625 16.25C414.9 128.2 415.4 128 416 128C469 128 512 171 512 224z"/><path class="fa-secondary" d="M384 352c-17.75 0-32 14.25-32 32s14.25 32 32 32s32-14.25 32-32S401.8 352 384 352zM192 448c-17.75 0-32 14.25-32 32s14.25 32 32 32s32-14.25 32-32S209.8 448 192 448zM320 448c-17.75 0-32 14.25-32 32s14.25 32 32 32s32-14.25 32-32S337.8 448 320 448zM256 352c-17.75 0-32 14.25-32 32s14.25 32 32 32s32-14.25 32-32S273.8 352 256 352zM64 448c-17.75 0-32 14.25-32 32s14.25 32 32 32s32-14.25 32-32S81.75 448 64 448zM128 352c-17.75 0-32 14.25-32 32s14.25 32 32 32s32-14.25 32-32S145.8 352 128 352z"/></svg>

<svg xmlns="http://www.w3.org/2000/svg" viewBox="0 0 512 512"><!-- Font Awesome Pro 5.15.3 by @fontawesome - https://fontawesome.com License - https://fontawesome.com/license (Commercial License) --><defs><style>.fa-secondary{opacity:.4}</style></defs><path d="M384 352a32 32 0 1 0 32 32 32 32 0 0 0-32-32zm-192 96a32 32 0 1 0 32 32 32 32 0 0 0-32-32zm128 0a32 32 0 1 0 32 32 32 32 0 0 0-32-32zm-64-96a32 32 0 1 0 32 32 32 32 0 0 0-32-32zM64 448a32 32 0 1 0 32 32 32 32 0 0 0-32-32zm64-96a32 32 0 1 0 32 32 32 32 0 0 0-32-32z" class="fa-secondary"/><path d="M512 224a96 96 0 0 1-96 96H96a96 96 0 0 1-96-96c0-42.5 27.8-78.2 66.1-90.8A113.72 113.72 0 0 1 64 112 111.94 111.94 0 0 1 176 0c43.3 0 80.4 24.8 99 60.8C289.7 43.3 311.4 32 336 32a80 80 0 0 1 80 80 78.09 78.09 0 0 1-1.6 16.2c.5 0 1-.2 1.6-.2a96 96 0 0 1 96 96z" class="fa-primary"/></svg>
